!!!OTL: Die elfjaehrige Markgraefin Solemnis dies advenit
!!!ARE: Europa, Mitteleuropa, Deutschland
!!!YOR: 2, S. 296
!!    1646 Handschrift Kloster Seeon
!!!SCT: Q3053M
!!!YEM: Copyright 1995, estate of Helmut Schaffrath.
**kern
*ICvox
*Ivox
!! Mixed meters:  4/4; 6/4
*M6/4
*k[b-]
*F:
{4f
4f
4cc
=1
4a
4f
4.g
8g
=2
2f
4r}
{4cc
4ff
4ff
=3
*M4/4
4ee
4cc
4.dd
8dd
=4
*M6/4
2cc
4r}
{4cc
4ff
4ee
=5
*M4/4
4dd
4a
4.cc
8b-
=6
*M6/4
2a
4r}
{4a
4dd
4cc
=7
*M4/4
4b-
4a
4.g
8g
=8
2f
4r}
==
!!!AGN: geistlich
!! Melodievergleich zu Q0053L, anderes Lied.
!!!ONB: ESAC (Essen Associative Code) Database: BALLADE
!!!AMT: irregular
!!!AIN: vox
!!!EED: Helmut Schaffrath
!!!EEV: 1.0
*-
